X:10
T: Es geht nix ueber die Gemuetlichkeit, ja, ja, ja, ja
N: V0002F
O: Europa, Mitteleuropa, Deutschland, Ober - Franken, Kuemmersreuth
R: Geselligkeits - Lied, Gemuetlichkeit
M: 2/4
L: 1/16
K: G
D2 | G2G2GGGA | G2F2F2A2 | E4z2F2 | D4z2
D2 | GGG2GGGA | GFF2F2A2 | E4z2F2 | D4z2

